src/assets/images/Nublado.svg

<svg width="28" height="20" viewBox="0 0 28 20" fill="none" xmlns="http://www.w3.org/2000/svg">
<path d="M20.077 11.3679C19.8802 9.72097 19.0865 8.18499 17.8261 7.0118C16.5657 5.83861 14.9134 5.09783 13.14 4.9109C11.3667 4.72397 9.57758 5.10199 8.066 5.98299C6.55442 6.86399 5.41007 8.19568 4.82059 9.75973C3.4698 9.86238 2.21414 10.4462 1.31645 11.3889C0.418754 12.3317 -0.0513782 13.5602 0.0044609 14.8175C0.0603 16.0748 0.637782 17.2633 1.61602 18.1342C2.59427 19.0051 3.89743 19.491 5.25274 19.49H20.1243C21.2843 19.4842 22.3944 19.0507 23.2102 18.285C24.0261 17.5193 24.4809 16.4841 24.4746 15.407C24.4684 14.33 24.0015 13.2993 23.1768 12.5418C22.3521 11.7844 21.2371 11.3621 20.077 11.3679Z" fill="white"/>
<path d="M25.45 12.622C25.0364 11.945 24.4775 11.354 23.8079 10.8857C23.1383 10.4174 22.3722 10.0817 21.5572 9.89952C20.9366 7.7153 19.448 5.83041 17.3909 4.62422C15.3338 3.41804 12.8609 2.98011 10.47 3.39859C11.141 2.25145 12.1683 1.31841 13.4184 0.72093C14.6684 0.123454 16.0833 -0.110782 17.4787 0.0487136C18.8741 0.208209 20.1855 0.754048 21.2422 1.61518C22.2988 2.4763 23.0518 3.61283 23.403 4.87681C24.4187 4.82867 25.4207 5.11065 26.2367 5.67427C27.0527 6.23788 27.6317 7.04788 27.874 7.96496C28.1164 8.88204 28.0069 9.84885 27.5645 10.6991C27.1221 11.5494 26.3744 12.2283 25.45 12.622Z" fill="white"/>
</svg>

<svg xmlns="http://www.w3.org/2000/svg" width="28" height="20" fill="none" viewBox="0 0 28 20"><path fill="#fff" d="M20.077 11.368c-.197-1.647-.99-3.183-2.25-4.356S14.912 5.098 13.14 4.91a8.36 8.36 0 0 0-5.074 1.072C6.554 6.864 5.41 8.196 4.821 9.76c-1.351.102-2.607.686-3.505 1.629S-.05 13.56.004 14.818c.056 1.257.634 2.445 1.612 3.316s2.281 1.357 3.637 1.356h14.871c1.16-.006 2.27-.44 3.086-1.205s1.27-1.8 1.265-2.878c-.007-1.077-.474-2.108-1.298-2.865a4.56 4.56 0 0 0-3.1-1.174"/><path fill="#fff" d="M25.45 12.622a5.8 5.8 0 0 0-1.642-1.736 6.3 6.3 0 0 0-2.25-.986c-.621-2.185-2.11-4.07-4.167-5.276S12.86 2.98 10.47 3.4A6.8 6.8 0 0 1 13.418.72a7.47 7.47 0 0 1 4.06-.672 7.27 7.27 0 0 1 3.764 1.566 6.45 6.45 0 0 1 2.161 3.262 4.6 4.6 0 0 1 2.834.797 4.06 4.06 0 0 1 1.637 2.291 3.8 3.8 0 0 1-.31 2.734 4.24 4.24 0 0 1-2.114 1.923"/></svg>
